styles/3/Numix/256x256/places/default-folder-move.svg

<svg xmlns="http://www.w3.org/2000/svg" xmlns:xlink="http://www.w3.org/1999/xlink" width="256px" height="256px" viewBox="0 0 256 256" version="1.1">
<defs>
<filter id="alpha" filterUnits="objectBoundingBox" x="0%" y="0%" width="100%" height="100%">
  <feColorMatrix type="matrix" in="SourceGraphic" values="0 0 0 0 1 0 0 0 0 1 0 0 0 0 1 0 0 0 1 0"/>
</filter>
<image id="image11" width="256" height="256" xlink:href="data:image/png;base64,iVBORw0KGgoAAAANSUhEUgAAAQAAAAEACAYAAABccqhmAAAABmJLR0QA/wD/AP+gvaeTAAACU0lEQVR4nO3UQVEDQQAAwWMTD/kiIDawgIgIQgQWsBETJ+K2ogD4pGqrMt0K5jXbBgAAAAAAAAAAAAAAAAAAAAAAAAAAAAAAAAAAAAAAAAD85+37dPq4j3FZHcLruc65fx7Hz+oOfne+j3H5mvN9dQiv5zbGth3H6gz+MFYHAOsYAIQZAIQZAIQZAIQZAIQZAIQZAIQZAIQZAIQZAIQZAIQZAIQZAIQZAIQZAIQZAIQZAIQZAIQZAIQZAIQZAIQZAIQZAIQZAIQZAIQZAIQZAIQZAIQZAIQZAIQZAIQZAIQZAIQZAIQZAIQZAIQZAIQZAIQZAIQZAIQZAIQZAIQZAIQZAIQZAIQZAIQZAIQZAIQZAIQZAIQZAIQZAIQZAIQZAIQZAIQZAIQZAIQZAIQZAIQZAIQZAIQZAIQZAIQZAIQZAIQZAIQZAIQZAIQZAIQZAIQZAIQZAIQZAIQZAIQZAIQZAIQZAIQZAIQZAIQZAIQZAIQZAIQZAIQZAIQZAIQZAIQZAIQZAIQZAIQZAIQZAIQZAIQZAIQZAIQZAIQZAIQZAIQZAIQZAIQZAIQZAIQZAIQZAIQZAIQZAIQZAIQZAIQZAIQZAIQZAIQZAIQZAIQZAIQZAIQZAIQZAISdr3Put+EDPN91zn11AwAAAAAAAAAAAAAAAAAAAAAAAAAAAAAAAAAAAAAAAAAAAAAAAAAAAAAAAAAAAAAAAAAAAAAAAAAAAAAAAAAAAAAAAAAAAAAAAAAAAAAAAAAAAAAAAAAAAAAAAAAAAAAAAAAAAAAAAAA80wPGchWNltJJgAAAAABJRU5ErkJggg=="/>
<mask id="mask0">
  <g filter="url(#alpha)">
<use xlink:href="#image11"/>
  </g>
</mask>
<clipPath id="clip1">
  <rect width="256" height="256"/>
</clipPath>
<g id="surface13" clip-path="url(#clip1)">
<path style=" stroke:none;fill-rule:nonzero;fill:rgb(91.764706%,56.470588%,21.176471%);fill-opacity:1;" d="M 8 40 L 144 40 L 144 96 L 8 96 Z M 8 40 "/>
<path style=" stroke:none;fill-rule:nonzero;fill:rgb(91.764706%,56.470588%,21.176471%);fill-opacity:1;" d="M 24.109375 40 C 24.109375 36 24.109375 32 31.359375 32 L 56.75 32 C 64 32 64 36 64 40 Z M 24.109375 40 "/>
<path style=" stroke:none;fill-rule:nonzero;fill:rgb(58.431373%,59.607843%,62.352941%);fill-opacity:1;" d="M 16 56 L 136 56 L 136 80 L 16 80 Z M 16 56 "/>
<path style=" stroke:none;fill-rule:nonzero;fill:rgb(84.705882%,84.705882%,85.490196%);fill-opacity:1;" d="M 32 48 L 128 48 L 128 120 L 32 120 Z M 32 48 "/>
<path style=" stroke:none;fill-rule:nonzero;fill:rgb(97.647059%,97.647059%,97.647059%);fill-opacity:1;" d="M 24 64 L 120 64 L 120 136 L 24 136 Z M 24 64 "/>
<path style=" stroke:none;fill-rule:nonzero;fill:rgb(94.901961%,73.333333%,39.215686%);fill-opacity:1;" d="M 0 72 L 152 72 L 141.140625 152 L 10.859375 152 Z M 0 72 "/>
</g>
</defs>
<g id="surface2">
<use xlink:href="#surface13" mask="url(#mask0)"/>
<path style=" stroke:none;fill-rule:nonzero;fill:rgb(91.764706%,56.470588%,21.176471%);fill-opacity:1;" d="M 112 120 L 248 120 L 248 176 L 112 176 Z M 112 120 "/>
<path style=" stroke:none;fill-rule:nonzero;fill:rgb(91.764706%,56.470588%,21.176471%);fill-opacity:1;" d="M 128.109375 120 C 128.109375 116 128.109375 112 135.359375 112 L 160.75 112 C 168 112 168 116 168 120 Z M 128.109375 120 "/>
<path style=" stroke:none;fill-rule:nonzero;fill:rgb(58.431373%,59.607843%,62.352941%);fill-opacity:1;" d="M 120 136 L 240 136 L 240 160 L 120 160 Z M 120 136 "/>
<path style=" stroke:none;fill-rule:nonzero;fill:rgb(84.705882%,84.705882%,85.490196%);fill-opacity:1;" d="M 136 128 L 232 128 L 232 200 L 136 200 Z M 136 128 "/>
<path style=" stroke:none;fill-rule:nonzero;fill:rgb(97.647059%,97.647059%,97.647059%);fill-opacity:1;" d="M 128 144 L 224 144 L 224 216 L 128 216 Z M 128 144 "/>
<path style=" stroke:none;fill-rule:nonzero;fill:rgb(94.901961%,73.333333%,39.215686%);fill-opacity:1;" d="M 104 152 L 256 152 L 245.140625 232 L 114.859375 232 Z M 104 152 "/>
</g>
</svg>

<?xml version="1.0" encoding="UTF-8" standalone="no"?>
<svg
   xmlns:dc="http://purl.org/dc/elements/1.1/"
   xmlns:cc="http://creativecommons.org/ns#"
   xmlns:rdf="http://www.w3.org/1999/02/22-rdf-syntax-ns#"
   xmlns:svg="http://www.w3.org/2000/svg"
   xmlns="http://www.w3.org/2000/svg"
   xmlns:xlink="http://www.w3.org/1999/xlink"
   xmlns:sodipodi="http://sodipodi.sourceforge.net/DTD/sodipodi-0.dtd"
   xmlns:inkscape="http://www.inkscape.org/namespaces/inkscape"
   width="256px"
   height="256px"
   viewBox="0 0 256 256"
   version="1.1"
   id="svg3047"
   inkscape:version="0.48.5 r10040"
   sodipodi:docname="folder-move.svg">
  <metadata
     id="metadata3093">
    <rdf:RDF>
      <cc:Work
         rdf:about="">
        <dc:format>image/svg+xml</dc:format>
        <dc:type
           rdf:resource="http://purl.org/dc/dcmitype/StillImage" />
      </cc:Work>
    </rdf:RDF>
  </metadata>
  <sodipodi:namedview
     pagecolor="#ffffff"
     bordercolor="#666666"
     borderopacity="1"
     objecttolerance="10"
     gridtolerance="10"
     guidetolerance="10"
     inkscape:pageopacity="0"
     inkscape:pageshadow="2"
     inkscape:window-width="1280"
     inkscape:window-height="998"
     id="namedview3091"
     showgrid="false"
     inkscape:zoom="0.92187499"
     inkscape:cx="154.54001"
     inkscape:cy="44.431801"
     inkscape:window-x="0"
     inkscape:window-y="0"
     inkscape:window-maximized="1"
     inkscape:current-layer="svg3047" />
  <defs
     id="defs3049">
    <filter
       id="alpha"
       filterUnits="objectBoundingBox"
       x="0%"
       y="0%"
       width="100%"
       height="100%">
      <feColorMatrix
         type="matrix"
         in="SourceGraphic"
         values="0 0 0 0 1 0 0 0 0 1 0 0 0 0 1 0 0 0 1 0"
         id="feColorMatrix3052" />
    </filter>
    <image
       id="image11"
       width="256"
       height="256"
       xlink:href="data:image/png;base64,iVBORw0KGgoAAAANSUhEUgAAAQAAAAEACAYAAABccqhmAAAABmJLR0QA/wD/AP+gvaeTAAACU0lEQVR4nO3UQVEDQQAAwWMTD/kiIDawgIgIQgQWsBETJ+K2ogD4pGqrMt0K5jXbBgAAAAAAAAAAAAAAAAAAAAAAAAAAAAAAAAAAAAAAAAD85+37dPq4j3FZHcLruc65fx7Hz+oOfne+j3H5mvN9dQiv5zbGth3H6gz+MFYHAOsYAIQZAIQZAIQZAIQZAIQZAIQZAIQZAIQZAIQZAIQZAIQZAIQZAIQZAIQZAIQZAIQZAIQZAIQZAIQZAIQZAIQZAIQZAIQZAIQZAIQZAIQZAIQZAIQZAIQZAIQZAIQZAIQZAIQZAIQZAIQZAIQZAIQZAIQZAIQZAIQZAIQZAIQZAIQZAIQZAIQZAIQZAIQZAIQZAIQZAIQZAIQZAIQZAIQZAIQZAIQZAIQZAIQZAIQZAIQZAIQZAIQZAIQZAIQZAIQZAIQZAIQZAIQZAIQZAIQZAIQZAIQZAIQZAIQZAIQZAIQZAIQZAIQZAIQZAIQZAIQZAIQZAIQZAIQZAIQZAIQZAIQZAIQZAIQZAIQZAIQZAIQZAIQZAIQZAIQZAIQZAIQZAIQZAIQZAIQZAIQZAIQZAIQZAIQZAIQZAIQZAIQZAIQZAIQZAIQZAIQZAIQZAIQZAIQZAIQZAIQZAISdr3Put+EDPN91zn11AwAAAAAAAAAAAAAAAAAAAAAAAAAAAAAAAAAAAAAAAAAAAAAAAAAAAAAAAAAAAAAAAAAAAAAAAAAAAAAAAAAAAAAAAAAAAAAAAAAAAAAAAAAAAAAAAAAAAAAAAAAAAAAAAAAAAAAAAAA80wPGchWNltJJgAAAAABJRU5ErkJggg==" />
    <mask
       id="mask0">
      <g
         filter="url(#alpha)"
         id="g3056">
        <use
           xlink:href="#image11"
           id="use3058" />
      </g>
    </mask>
    <clipPath
       id="clip1">
      <rect
         width="256"
         height="256"
         id="rect3061" />
    </clipPath>
    <g
       id="surface13"
       clip-path="url(#clip1)">
      <path
         style=" stroke:none;fill-rule:nonzero;fill:rgb(91.764706%,56.470588%,21.176471%);fill-opacity:1;"
         d="M 8 40 L 144 40 L 144 96 L 8 96 Z M 8 40 "
         id="path3064" />
      <path
         style=" stroke:none;fill-rule:nonzero;fill:rgb(91.764706%,56.470588%,21.176471%);fill-opacity:1;"
         d="M 24.109375 40 C 24.109375 36 24.109375 32 31.359375 32 L 56.75 32 C 64 32 64 36 64 40 Z M 24.109375 40 "
         id="path3066" />
      <path
         style=" stroke:none;fill-rule:nonzero;fill:rgb(58.431373%,59.607843%,62.352941%);fill-opacity:1;"
         d="M 16 56 L 136 56 L 136 80 L 16 80 Z M 16 56 "
         id="path3068" />
      <path
         style=" stroke:none;fill-rule:nonzero;fill:rgb(84.705882%,84.705882%,85.490196%);fill-opacity:1;"
         d="M 32 48 L 128 48 L 128 120 L 32 120 Z M 32 48 "
         id="path3070" />
      <path
         style=" stroke:none;fill-rule:nonzero;fill:rgb(97.647059%,97.647059%,97.647059%);fill-opacity:1;"
         d="M 24 64 L 120 64 L 120 136 L 24 136 Z M 24 64 "
         id="path3072" />
      <path
         style=" stroke:none;fill-rule:nonzero;fill:rgb(94.901961%,73.333333%,39.215686%);fill-opacity:1;"
         d="M 0 72 L 152 72 L 141.140625 152 L 10.859375 152 Z M 0 72 "
         id="path3074" />
    </g>
  </defs>
  <g
     id="g7471"
     style="opacity:0.5">
    <path
       inkscape:connector-curvature="0"
       id="path7459"
       d="m 8,40 136,0 0,56 -136,0 z m 0,0"
       style="fill:#ea9036;fill-opacity:1;fill-rule:nonzero;stroke:none" />
    <path
       inkscape:connector-curvature="0"
       id="path7461"
       d="m 24.10937,40 c 0,-4 0,-8 7.25,-8 L 56.75,32 C 64,32 64,36 64,40 z m 0,0"
       style="fill:#ea9036;fill-opacity:1;fill-rule:nonzero;stroke:none" />
    <path
       inkscape:connector-curvature="0"
       id="path7463"
       d="m 16,56 120,0 0,24 -120,0 z m 0,0"
       style="fill:#94979e;fill-opacity:1;fill-rule:nonzero;stroke:none" />
    <path
       inkscape:connector-curvature="0"
       id="path7465"
       d="m 32,48 96,0 0,72 -96,0 z m 0,0"
       style="fill:#d7d7d9;fill-opacity:1;fill-rule:nonzero;stroke:none" />
    <path
       inkscape:connector-curvature="0"
       id="path7467"
       d="m 24,64 96,0 0,72 -96,0 z m 0,0"
       style="fill:#f8f8f8;fill-opacity:1;fill-rule:nonzero;stroke:none" />
    <path
       inkscape:connector-curvature="0"
       id="path7469"
       d="m 0,72 152,0 -10.85938,80 -130.28124,0 z m 0,0"
       style="fill:#f2bb64;fill-opacity:1;fill-rule:nonzero;stroke:none" />
  </g>
  <path
     inkscape:connector-curvature="0"
     id="path3079"
     d="m 112,120 136,0 0,56 -136,0 z m 0,0"
     style="fill:#ea9036;fill-opacity:1;fill-rule:nonzero;stroke:none" />
  <path
     inkscape:connector-curvature="0"
     id="path3081"
     d="m 128.10937,120 c 0,-4 0,-8 7.25,-8 l 25.39063,0 c 7.25,0 7.25,4 7.25,8 z m 0,0"
     style="fill:#ea9036;fill-opacity:1;fill-rule:nonzero;stroke:none" />
  <path
     inkscape:connector-curvature="0"
     id="path3083"
     d="m 120,136 120,0 0,24 -120,0 z m 0,0"
     style="fill:#94979e;fill-opacity:1;fill-rule:nonzero;stroke:none" />
  <path
     inkscape:connector-curvature="0"
     id="path3085"
     d="m 136,128 96,0 0,72 -96,0 z m 0,0"
     style="fill:#d7d7d9;fill-opacity:1;fill-rule:nonzero;stroke:none" />
  <path
     inkscape:connector-curvature="0"
     id="path3087"
     d="m 128,144 96,0 0,72 -96,0 z m 0,0"
     style="fill:#f8f8f8;fill-opacity:1;fill-rule:nonzero;stroke:none" />
  <path
     inkscape:connector-curvature="0"
     id="path3089"
     d="m 104,152 152,0 -10.85938,80 -130.28124,0 z m 0,0"
     style="fill:#f2bb64;fill-opacity:1;fill-rule:nonzero;stroke:none" />
</svg>
